X:1
T: St. Patrick's Day
C:
R:Jig
Q:180
K:G
M:6/8
L:1/16
|:D2|G2A2G2 G2B2c2|d2e2d2 d2B2G2|A2B2c2 B2G2D2|E2F2E2 E4D2|
G2A2G2 G2B2c2|d2e2d2 d2B2G2|A2B2c2 B2G2D2|E4F2 G4:|
|:d2|d2e2f2 g4e2|f4d2 e4c2|d2e2f2 g4e2|f2e2d2 e4g2|
G2A2G2 G2B2c2|d2e2d2 d2B2G2|A2B2c2 B2G2D2|E4F2 G4:|
